X: 32772
T: Pondering
R: jig
M: 6/8
K: Dmajor
|:DFA cde|dcA GAB|FAd EAc|(3dcc A GAB|
DFA [Dd]de|dcA GAB|AdB cAG|EDC (3DED D:|
|:A2B =cBA|eag ed=c|BGG dGG|Bd=c BAG|
[1 A2B =cBA|eag ed=c|Bdg gdB|ABA(3ABA A:|
[2 A2B =cBA|eag fed|gdB GAB|ABA AFE||

